Dominus_Dark_Funeral/scalable/apps/chromium-browser.svg

<?xml version="1.0" encoding="UTF-8" standalone="no"?><svg xmlns:dc="http://purl.org/dc/elements/1.1/" xmlns:cc="http://creativecommons.org/ns#" xmlns:rdf="http://www.w3.org/1999/02/22-rdf-syntax-ns#" xmlns="http://www.w3.org/2000/svg" xmlns:xlink="http://www.w3.org/1999/xlink" width="48" height="48" viewBox="0 0 12.7 12.7"><metadata><rdf:RDF><cc:Work><dc:format>image/svg+xml</dc:format><dc:type rdf:resource="http://purl.org/dc/dcmitype/StillImage"/><dc:title/></cc:Work></rdf:RDF></metadata><defs><linearGradient id="g"><stop offset="0" stop-color="#acf"/><stop offset="1" stop-color="#4d8df5"/></linearGradient><linearGradient id="e"><stop offset="0" stop-color="#94c0ff"/><stop offset="1" stop-color="#d7eef4"/></linearGradient><linearGradient id="f"><stop offset="0" stop-color="#2964e0"/><stop offset="1" stop-color="#acf"/></linearGradient><linearGradient id="j"><stop offset="0" stop-color="#cdde87"/><stop offset="1" stop-color="#46a91a"/></linearGradient><linearGradient id="h"><stop offset="0" stop-color="#ffcf1f"/><stop offset="1" stop-color="#fea"/></linearGradient><linearGradient id="i"><stop offset="0" stop-color="#ff2a2a"/><stop offset="1" stop-color="#faa"/></linearGradient><linearGradient id="a"><stop stop-color="#1a1a1a" offset="0"/><stop stop-color="#1a1a1a" stop-opacity=".48" offset=".59"/><stop stop-color="#1a1a1a" stop-opacity=".06" offset="1"/></linearGradient><linearGradient xlink:href="#e" id="k" gradientUnits="userSpaceOnUse" x1="11.7" y1=".78" x2="4.78" y2="12.66"/><linearGradient xlink:href="#f" id="l" gradientUnits="userSpaceOnUse" x1="1" y1="6.83" x2="11.4" y2=".09"/><linearGradient xlink:href="#g" id="m" gradientUnits="userSpaceOnUse" x1="1" y1="2.32" x2="8.66" y2="12.45"/><linearGradient xlink:href="#h" id="b" gradientUnits="userSpaceOnUse" x1="11.7" y1=".78" x2="4.78" y2="12.66"/><linearGradient xlink:href="#i" id="c" gradientUnits="userSpaceOnUse" x1="1" y1="6.83" x2="11.4" y2=".09"/><linearGradient xlink:href="#j" id="d" gradientUnits="userSpaceOnUse" x1="1" y1="2.32" x2="8.66" y2="12.45"/></defs><path d="M4.76 11.65c.3.3.57.55.82.7.28.17.53.25.77.25s.5-.08.77-.25c.28-.17.58-.43.92-.78a15.2 15.2 0 0 0 1.65-2.15c.23-.37.73-1.2 1.18-2.17.22-.48.42-1 .57-1.52a4.63 4.63 0 0 0 .14-2.52 3.74 3.74 0 0 0-.31-.9l-.03-.03L6.34.82c-.58 1.43-1 6.8-.57 9.74l-.87.34z" color="#000" fill="url(#k)"/><path d="M11.4 2.71c-.04-.12-.07-.26-.13-.37A3.44 3.44 0 0 0 10.04.98a6.75 6.75 0 0 0-.6-.3A6.75 6.75 0 0 0 8.8.42a6.75 6.75 0 0 0-.65-.18 6.75 6.75 0 0 0-.67-.11 6.75 6.75 0 0 0-.67-.05 6.75 6.75 0 0 0-.47.01v.01c-.77 0-1.46.07-2.08.22a5.9 5.9 0 0 0-1.61.65 3.67 3.67 0 0 0-.3.22 3.67 3.67 0 0 0-.27.24 3.67 3.67 0 0 0-.25.27 3.67 3.67 0 0 0-.22.3 3.67 3.67 0 0 0-.19.3 3.67 3.67 0 0 0-.16.34 3.67 3.67 0 0 0-.12.34 3.67 3.67 0 0 0-.09.36 3.67 3.67 0 0 0-.05.36 3.67 3.67 0 0 0-.01.37 3.67 3.67 0 0 0 0 .15c0 .23.08.49.12.73L3.9 6.8c-.2-.39 1.44-.06 1.71-.45.67-.94 1.67-3.64.74-3.64zm-4.43.07z" color="#000" fill="url(#l)"/><path d="M1.37 2.42a3.67 3.67 0 0 0-.1.2 3.67 3.67 0 0 0-.12.36 3.67 3.67 0 0 0-.09.35 3.67 3.67 0 0 0-.05.36 3.67 3.67 0 0 0-.01.37 3.67 3.67 0 0 0 0 .15c0 .48.1 1 .25 1.52s.36 1.04.58 1.52a18.1 18.1 0 0 0 2.83 4.32c.34.35.64.6.92.78h.02l.4-.7 1.42-2.46 1.24-2.16c-1-.92-4.16-.83-4.76-.23zm5.6.36zm-2.44.62zM3.6 5.14l-.02.14c0-.05 0-.1.02-.14z" color="#000" fill="url(#m)"/><path d="M9.13 5.49a2.78 2.78 0 0 1-2.78 2.78 2.78 2.78 0 0 1-2.78-2.78 2.78 2.78 0 0 1 2.78-2.78A2.78 2.78 0 0 1 9.13 5.5z" color="#000" fill="#fff"/><path d="M8.47 5.48A2.12 2.12 0 0 1 6.35 7.6a2.12 2.12 0 0 1-2.12-2.12 2.12 2.12 0 0 1 2.12-2.11 2.12 2.12 0 0 1 2.12 2.11z" color="#000" fill="#0cf"/><path d="M6.35.12c-1.54 0-2.78.29-3.69.87A3.67 3.67 0 0 0 1 4.24c0 1.91 1.54 4.47 2.01 5.2.54.85 1.13 1.61 1.65 2.16.68.7 1.21 1.03 1.69 1.03s1.01-.33 1.69-1.03a15.2 15.2 0 0 0 1.65-2.15c.47-.74 2-3.3 2-5.21 0-1.42-.57-2.54-1.65-3.25A6.75 6.75 0 0 0 6.35.11zm0 .03c.56.02 1.09.07 1.55.18a5.82 5.82 0 0 1 1.6.66 3.65 3.65 0 0 1 1.24 1.36c.14.27.25.57.32.88a4.61 4.61 0 0 1-.14 2.53c-.15.52-.36 1.04-.58 1.52-.44.97-.95 1.8-1.18 2.17a15.2 15.2 0 0 1-1.65 2.15 4.9 4.9 0 0 1-.92.78.96.96 0 0 1-.24.1.96.96 0 0 1-.24-.1 4.76 4.76 0 0 1-.92-.78 14.41 14.41 0 0 1-1.65-2.15 19.2 19.2 0 0 1-1.18-2.17c-.22-.48-.43-1-.58-1.52a4.6 4.6 0 0 1-.14-2.52 3.73 3.73 0 0 1 .84-1.64 3.65 3.65 0 0 1 1.45-1A6.83 6.83 0 0 1 6.35.15z" opacity=".2"/></svg>

<?xml version="1.0" encoding="UTF-8" standalone="no"?>
<svg
   xmlns:dc="http://purl.org/dc/elements/1.1/"
   xmlns:cc="http://creativecommons.org/ns#"
   xmlns:rdf="http://www.w3.org/1999/02/22-rdf-syntax-ns#"
   xmlns:svg="http://www.w3.org/2000/svg"
   xmlns="http://www.w3.org/2000/svg"
   xmlns:xlink="http://www.w3.org/1999/xlink"
   xmlns:sodipodi="http://sodipodi.sourceforge.net/DTD/sodipodi-0.dtd"
   xmlns:inkscape="http://www.inkscape.org/namespaces/inkscape"
   width="48"
   height="48"
   viewBox="0 0 12.7 12.7"
   version="1.1"
   id="svg61"
   sodipodi:docname="chromium-browser.svg"
   inkscape:version="0.92.4 (5da689c313, 2019-01-14)">
  <sodipodi:namedview
     pagecolor="#ffffff"
     bordercolor="#666666"
     borderopacity="1"
     objecttolerance="10"
     gridtolerance="10"
     guidetolerance="10"
     inkscape:pageopacity="0"
     inkscape:pageshadow="2"
     inkscape:window-width="1112"
     inkscape:window-height="480"
     id="namedview63"
     showgrid="false"
     inkscape:zoom="4.9166667"
     inkscape:cx="2.1355932"
     inkscape:cy="24"
     inkscape:window-x="0"
     inkscape:window-y="25"
     inkscape:window-maximized="0"
     inkscape:current-layer="svg61" />
  <metadata
     id="metadata2">
    <rdf:RDF>
      <cc:Work>
        <dc:format>image/svg+xml</dc:format>
        <dc:type
           rdf:resource="http://purl.org/dc/dcmitype/StillImage" />
        <dc:title></dc:title>
      </cc:Work>
    </rdf:RDF>
  </metadata>
  <defs
     id="defs47">
    <linearGradient
       id="g">
      <stop
         offset="0"
         stop-color="#acf"
         id="stop4" />
      <stop
         offset="1"
         stop-color="#4d8df5"
         id="stop6" />
    </linearGradient>
    <linearGradient
       id="e">
      <stop
         offset="0"
         stop-color="#94c0ff"
         id="stop9" />
      <stop
         offset="1"
         stop-color="#d7eef4"
         id="stop11" />
    </linearGradient>
    <linearGradient
       id="f">
      <stop
         offset="0"
         stop-color="#2964e0"
         id="stop14" />
      <stop
         offset="1"
         stop-color="#acf"
         id="stop16" />
    </linearGradient>
    <linearGradient
       id="j">
      <stop
         offset="0"
         stop-color="#cdde87"
         id="stop19" />
      <stop
         offset="1"
         stop-color="#46a91a"
         id="stop21" />
    </linearGradient>
    <linearGradient
       id="h">
      <stop
         offset="0"
         stop-color="#ffcf1f"
         id="stop24" />
      <stop
         offset="1"
         stop-color="#fea"
         id="stop26" />
    </linearGradient>
    <linearGradient
       id="i">
      <stop
         offset="0"
         stop-color="#ff2a2a"
         id="stop29" />
      <stop
         offset="1"
         stop-color="#faa"
         id="stop31" />
    </linearGradient>
    <linearGradient
       id="a">
      <stop
         stop-color="#1a1a1a"
         offset="0"
         id="stop34" />
      <stop
         stop-color="#1a1a1a"
         stop-opacity=".48"
         offset=".59"
         id="stop36" />
      <stop
         stop-color="#1a1a1a"
         stop-opacity=".06"
         offset="1"
         id="stop38" />
    </linearGradient>
    <linearGradient
       xlink:href="#e"
       id="k"
       gradientUnits="userSpaceOnUse"
       x1="11.7"
       y1=".78"
       x2="4.78"
       y2="12.66" />
    <linearGradient
       xlink:href="#f"
       id="l"
       gradientUnits="userSpaceOnUse"
       x1="1"
       y1="6.83"
       x2="11.4"
       y2=".09" />
    <linearGradient
       xlink:href="#g"
       id="m"
       gradientUnits="userSpaceOnUse"
       x1="1"
       y1="2.32"
       x2="8.66"
       y2="12.45" />
    <linearGradient
       xlink:href="#h"
       id="b"
       gradientUnits="userSpaceOnUse"
       x1="11.7"
       y1=".78"
       x2="4.78"
       y2="12.66" />
    <linearGradient
       xlink:href="#i"
       id="c"
       gradientUnits="userSpaceOnUse"
       x1="1"
       y1="6.83"
       x2="11.4"
       y2=".09" />
    <linearGradient
       xlink:href="#j"
       id="d"
       gradientUnits="userSpaceOnUse"
       x1="1"
       y1="2.32"
       x2="8.66"
       y2="12.45" />
  </defs>
  <path
     d="m 4.76,11.65 c 0.3,0.3 0.57,0.55 0.82,0.7 0.28,0.17 0.53,0.25 0.77,0.25 0.24,0 0.5,-0.08 0.77,-0.25 C 7.4,12.18 7.7,11.92 8.04,11.57 A 15.2,15.2 0 0 0 9.69,9.42 c 0.23,-0.37 0.73,-1.2 1.18,-2.17 0.22,-0.48 0.42,-1 0.57,-1.52 A 4.63,4.63 0 0 0 11.58,3.21 3.74,3.74 0 0 0 11.27,2.31 L 11.24,2.28 6.34,0.82 c -0.58,1.43 -1,6.8 -0.57,9.74 L 4.9,10.9 Z"
     id="path49"
     style="color:#000000;fill:url(#k)"
     inkscape:connector-curvature="0" />
  <path
     d="M 11.4,2.71 C 11.36,2.59 11.33,2.45 11.27,2.34 A 3.44,3.44 0 0 0 10.04,0.98 6.75,6.75 0 0 0 9.44,0.68 6.75,6.75 0 0 0 8.8,0.42 6.75,6.75 0 0 0 8.15,0.24 6.75,6.75 0 0 0 7.48,0.13 6.75,6.75 0 0 0 6.81,0.08 6.75,6.75 0 0 0 6.34,0.09 V 0.1 C 5.57,0.1 4.88,0.17 4.26,0.32 A 5.9,5.9 0 0 0 2.65,0.97 3.67,3.67 0 0 0 2.35,1.19 3.67,3.67 0 0 0 2.08,1.43 3.67,3.67 0 0 0 1.83,1.7 3.67,3.67 0 0 0 1.61,2 3.67,3.67 0 0 0 1.42,2.3 3.67,3.67 0 0 0 1.26,2.64 3.67,3.67 0 0 0 1.14,2.98 3.67,3.67 0 0 0 1.05,3.34 3.67,3.67 0 0 0 1,3.7 3.67,3.67 0 0 0 0.99,4.07 a 3.67,3.67 0 0 0 0,0.15 c 0,0.23 0.08,0.49 0.12,0.73 L 3.9,6.8 C 3.7,6.41 5.34,6.74 5.61,6.35 6.28,5.41 7.28,2.71 6.35,2.71 Z M 6.97,2.78 Z"
     id="path51"
     style="color:#000000;fill:url(#l)"
     inkscape:connector-curvature="0" />
  <path
     d="M 1.37,2.42 A 3.67,3.67 0 0 0 1.27,2.62 3.67,3.67 0 0 0 1.15,2.98 3.67,3.67 0 0 0 1.06,3.33 3.67,3.67 0 0 0 1.01,3.69 3.67,3.67 0 0 0 1,4.06 3.67,3.67 0 0 0 1,4.21 c 0,0.48 0.1,1 0.25,1.52 0.15,0.52 0.36,1.04 0.58,1.52 a 18.1,18.1 0 0 0 2.83,4.32 C 5,11.92 5.3,12.17 5.58,12.35 H 5.6 L 6,11.65 7.42,9.19 8.66,7.03 C 7.66,6.11 4.5,6.2 3.9,6.8 Z m 5.6,0.36 z M 4.53,3.4 Z M 3.6,5.14 3.58,5.28 c 0,-0.05 0,-0.1 0.02,-0.14 z"
     id="path53"
     style="color:#000000;fill:url(#m)"
     inkscape:connector-curvature="0" />
  <path
     d="M 9.13,5.49 A 2.78,2.78 0 0 1 6.35,8.27 2.78,2.78 0 0 1 3.57,5.49 2.78,2.78 0 0 1 6.35,2.71 2.78,2.78 0 0 1 9.13,5.5 Z"
     id="path55"
     inkscape:connector-curvature="0"
     style="color:#000000;fill:#ffffff" />
  <path
     d="M 8.47,5.48 A 2.12,2.12 0 0 1 6.35,7.6 2.12,2.12 0 0 1 4.23,5.48 2.12,2.12 0 0 1 6.35,3.37 2.12,2.12 0 0 1 8.47,5.48 Z"
     id="path57"
     inkscape:connector-curvature="0"
     style="color:#000000;fill:#00ccff" />
  <path
     d="M 6.35,0.12 C 4.81,0.12 3.57,0.41 2.66,0.99 A 3.67,3.67 0 0 0 1,4.24 c 0,1.91 1.54,4.47 2.01,5.2 0.54,0.85 1.13,1.61 1.65,2.16 0.68,0.7 1.21,1.03 1.69,1.03 0.48,0 1.01,-0.33 1.69,-1.03 A 15.2,15.2 0 0 0 9.69,9.45 c 0.47,-0.74 2,-3.3 2,-5.21 0,-1.42 -0.57,-2.54 -1.65,-3.25 A 6.75,6.75 0 0 0 6.35,0.11 Z m 0,0.03 C 6.91,0.17 7.44,0.22 7.9,0.33 a 5.82,5.82 0 0 1 1.6,0.66 3.65,3.65 0 0 1 1.24,1.36 c 0.14,0.27 0.25,0.57 0.32,0.88 A 4.61,4.61 0 0 1 10.92,5.76 C 10.77,6.28 10.56,6.8 10.34,7.28 9.9,8.25 9.39,9.08 9.16,9.45 A 15.2,15.2 0 0 1 7.51,11.6 4.9,4.9 0 0 1 6.59,12.38 0.96,0.96 0 0 1 6.35,12.48 0.96,0.96 0 0 1 6.11,12.38 4.76,4.76 0 0 1 5.19,11.6 14.41,14.41 0 0 1 3.54,9.45 19.2,19.2 0 0 1 2.36,7.28 C 2.14,6.8 1.93,6.28 1.78,5.76 A 4.6,4.6 0 0 1 1.64,3.24 3.73,3.73 0 0 1 2.48,1.6 3.65,3.65 0 0 1 3.93,0.6 6.83,6.83 0 0 1 6.35,0.15 Z"
     id="path59"
     inkscape:connector-curvature="0"
     style="opacity:0.2" />
</svg>
